!!!OTL: GESTERN ABEND DA GIENG ICH WOL
!!!ARE: Europa, Mitteleuropa, Deutschland, Westfalen, Paderborn
!!!SCT: E0627
!!!YEM: Copyright 1995, estate of Helmut Schaffrath.
**kern
*ICvox
*Ivox
*M2/4
*k[b-]
*F:
{16c
16c
=1
4f
8.cc
16b-
=2
4a
8g}
{8g
=3
8f
8e
8f
8a
=4
4g
8r}
{8g
=5
8g
8g
8a
8a
=6
4b-
8.cc
16b-
=7
4a
4g}
=8
{8f
8e
8f
8a
=9
4g
8.cc
16b-
=10
4a
4g
=11
4f
8r}
==
!!!AGN: Liebes - Lied
!!!ONB: ESAC (Essen Associative Code) Database: ERK2
!!!AMT: simple duple
!!!AIN: vox
!!!EED: Helmut Schaffrath
!!!EEV: 1.0
*-
